.local/share/icons/Gruvbox-Plus-Dark/actions/symbolic/window-close-symbolic.svg

<svg width="16" height="16" version="1.1" xmlns="http://www.w3.org/2000/svg">
  <defs>
    <style id="current-color-scheme" type="text/css">.ColorScheme-Text { color:#ebdbb2; } .ColorScheme-Highlight { color:#458588; }</style>
  </defs>
  <path class="ColorScheme-Text" d="m11 3.994c-0.0062 0.00622-0.3871-0.02706-0.707 0.293l-2.295 2.301-2.305-2.299c-0.1862-0.1842-0.4373-0.288-0.6992-0.2891-0.5523 3e-7 -1 0.4477-1 1 4e-5 0.2652 0.1054 0.5195 0.293 0.707l2.301 2.295-2.299 2.305c-0.1842 0.1862-0.288 0.4373-0.2891 0.6992 0 0.5523 0.4477 1 1 1 0.2652-4e-5 0.5195-0.1054 0.707-0.293l2.295-2.301 2.283 2.277c0.1879 0.1974 0.4482 0.3096 0.7207 0.3105 0.5523-1e-6 1-0.4477 1-1-0.0062-0.0062 0.02706-0.3871-0.293-0.707l-2.301-2.295 2.277-2.283c0.1974-0.1879 0.3096-0.4482 0.3105-0.7207 0-0.5523-0.4477-1-1-1z" fill="currentColor"/>
</svg>

<svg xmlns="http://www.w3.org/2000/svg" width="16" height="16" version="1.1">
 <path style="fill:#ebdbb2" d="M 5,4 A 1,1 0 0 0 4,5 1,1 0 0 0 4.29,5.71 L 6.59,8 4.29,10.29 A 1,1 0 0 0 4,11 1,1 0 0 0 5,12 1,1 0 0 0 5.71,11.71 L 8,9.41 10.28,11.7 A 1,1 0 0 0 11,12 1,1 0 0 0 12,11 1,1 0 0 0 11.71,10.29 L 9.41,8 11.7,5.72 A 1,1 0 0 0 12,5 1,1 0 0 0 11,4 1,1 0 0 0 10.29,4.29 L 8,6.59 5.72,4.3 A 1,1 0 0 0 5.71,4.29 1,1 0 0 0 5,4 Z"/>
</svg>
